packages/icons/src/emoji/svg/museum.svg

<svg width="120" height="120" viewBox="0 0 120 120" fill="none" xmlns="http://www.w3.org/2000/svg">
<path d="M13.4814 51.1875V90.3281H106.2L105.947 51.1875H13.4814Z" fill="#64878E"/>
<path d="M12.6279 35.0718H106.884V44.6249H12.6279V35.0718Z" fill="#8AB1B7"/>
<path d="M10.5371 32.3345H108.675V35.072H10.5371V32.3345Z" fill="#EEEEEE"/>
<path d="M11.1379 44.6157H108.291V51.1782H11.1379V44.6157ZM11.0629 90.3282H108.544C109.716 90.3282 110.663 91.2751 110.663 92.447V96.0095H8.94414V92.447C8.94414 91.2845 9.89102 90.3282 11.0629 90.3282ZM101.729 54.0188V51.1876H90.891V54.0188H92.8316L91.7254 90.3282H101.729L100.2 54.0188H101.729ZM51.3191 54.0188H53.0629V51.1876H42.216V54.0188H43.9504L42.6285 90.3282H52.641L51.3191 54.0188ZM26.9816 54.0188H28.7254V51.1876H17.8785V54.0188H19.6223L18.3004 90.3282H28.3035L26.9816 54.0188ZM77.4004 51.1876H66.5441V52.2095H66.5535V54.0188H68.2879L66.966 90.3282H76.9785L75.6566 54.0188H77.391V52.2095H77.4004V51.1876ZM7.55664 30.872L58.8004 6.47822C59.3066 6.23447 59.9066 6.23447 60.4129 6.47822L111.657 30.872V35.2126H7.55664V30.872Z" fill="#BCD2D3"/>
<path d="M59.2035 14.55L36.0848 25.5844C35.3535 25.9313 35.6066 27.0282 36.4129 27.0282H82.4254C83.2316 27.0282 83.4848 25.9407 82.7535 25.5844L59.8598 14.55C59.6535 14.4563 59.4191 14.4563 59.2035 14.55ZM7.52852 95.5875H112.285C113.429 95.5875 114.366 96.5157 114.366 97.6688V102.169H5.44727V97.6688C5.44727 96.525 6.37539 95.5875 7.52852 95.5875Z" fill="#8AB1B7"/>
<path d="M4.96836 102.178H114.843C115.828 102.178 116.625 102.975 116.625 103.959V113.963H3.17773V103.959C3.17773 102.975 3.98398 102.178 4.96836 102.178Z" fill="#BCD2D3"/>
</svg>

<svg xmlns="http://www.w3.org/2000/svg" fill="none" aria-hidden="true" data-slot="icon" viewBox="0 0 120 120"><path fill="#64878E" d="M13.481 51.188v39.14H106.2l-.253-39.14z"/><path fill="#8AB1B7" d="M12.628 35.072h94.256v9.553H12.628z"/><path fill="#EEE" d="M10.537 32.335h98.138v2.737H10.537z"/><path fill="#BCD2D3" d="M11.138 44.616h97.153v6.562H11.138zm-.075 45.712h97.481c1.172 0 2.119.947 2.119 2.119v3.563H8.944v-3.563c0-1.163.947-2.119 2.119-2.119m90.666-36.31v-2.83H90.891v2.83h1.94l-1.106 36.31h10.004l-1.529-36.31zm-50.41 0h1.744v-2.83H42.216v2.83h1.734l-1.322 36.31h10.013zm-24.337 0h1.743v-2.83H17.878v2.83h1.744L18.3 90.329h10.003zm50.418-2.83H66.544v1.021h.01v1.81h1.734l-1.322 36.31h10.013l-1.322-36.31h1.734v-1.81h.01zM7.557 30.872 58.8 6.478a1.87 1.87 0 0 1 1.613 0l51.244 24.394v4.34H7.557z"/><path fill="#8AB1B7" d="m59.204 14.55-23.12 11.034c-.73.347-.477 1.444.329 1.444h46.012c.807 0 1.06-1.087.329-1.444L59.86 14.55a.8.8 0 0 0-.657 0M7.529 95.588h104.756c1.144 0 2.081.928 2.081 2.08v4.501H5.447v-4.5c0-1.144.928-2.081 2.082-2.081"/><path fill="#BCD2D3" d="M4.968 102.178h109.875a1.78 1.78 0 0 1 1.782 1.781v10.004H3.178v-10.004c0-.984.806-1.781 1.79-1.781"/></svg>
